X:1

T:Barney’s Goat

M:9/8

L:1/8

R:Slip Jig

S:Ryan’s Mammoth Collection (1883)

Z:AK/Fiddler’s Companion

K:G

B2e e2fr g3 | B2d d2e dBG | B2e e2f g2a | b2a g2e dBA | B2e e2f g3 |

B2d d2e dBG | B2e e2f g2a | b2a g2e dBA || BcB B2A G2A | BcB B2e dBA |

BcB B2A G2A | B2d d2e dBA | BcB B2A G2A | BcB B2e dBA | BcB B2A G2A |

B2d d2e dBA ||

                       

BARNGANN GILL, THE. English, Country Dance (cut time). England, Northumberland. G Major. Standard tuning. AAB. A 'gill' is a type of liquid measure. Hall & Stafford (Charlton Memorial Tune Book), 1974; pg. 13. Raven (English Country Dance Tunes), 1984; pg. 182.

                       


BARNS OF CLYDE, THE. Scottish, Reel. D Minor. Standard tuning. AAB. Composed by Joseph Campbell. Glen finds the tune first published in Joshua Campbell's 1778 collection (pg. 77). Glen (The Glen Collection of Scottish Dance Music), vol. 1, 1891; pg. 22.

